assets/images/linkedin.svg

<svg fill="none" height="19" viewBox="0 0 18 19" width="18" xmlns="http://www.w3.org/2000/svg"><g fill="#fff"><path d="m2.04 0c-1.126661 0-2.04.939039-2.04 2.0974 0 1.15837.913339 2.09741 2.04 2.09741 1.12666 0 2.04-.93904 2.04-2.09741 0-1.158361-.91334-2.0974-2.04-2.0974z"/><path d="m.12 5.92208c-.0662742 0-.12.05524-.12.12337v12.83115c0 .0682.0537258.1234.12.1234h3.84c.06627 0 .12-.0552.12-.1234v-12.83115c0-.06813-.05373-.12337-.12-.12337z"/><path d="m6.36 5.92208c-.06627 0-.12.05524-.12.12337v12.83115c0 .0682.05373.1234.12.1234h3.84c.0663 0 .12-.0552.12-.1234v-6.9091c0-.4908.1896-.9615.5272-1.3086.3376-.347.7954-.542 1.2728-.542s.9352.195 1.2728.542c.3376.3471.5272.8178.5272 1.3086v6.9091c0 .0682.0537.1234.12.1234h3.84c.0663 0 .12-.0552.12-.1234v-8.5078c0-2.39521-2.0262-4.26907-4.3442-4.05241-.7148.06681-1.4216.24952-2.0816.54033l-1.2542.55265v-1.36392c0-.06813-.0537-.12337-.12-.12337z"/></g></svg>

<svg width="18" height="19" viewBox="0 0 18 19" fill="none" xmlns="http://www.w3.org/2000/svg">
<path d="M2.04 0C0.913339 0 0 0.939039 0 2.0974C0 3.25577 0.913339 4.19481 2.04 4.19481C3.16666 4.19481 4.08 3.25577 4.08 2.0974C4.08 0.939039 3.16666 0 2.04 0Z" fill="white"/>
<path d="M0.12 5.92208C0.0537258 5.92208 0 5.97732 0 6.04545V18.8766C0 18.9448 0.0537258 19 0.12 19H3.96C4.02627 19 4.08 18.9448 4.08 18.8766V6.04545C4.08 5.97732 4.02627 5.92208 3.96 5.92208H0.12Z" fill="white"/>
<path d="M6.36 5.92208C6.29373 5.92208 6.24 5.97732 6.24 6.04545V18.8766C6.24 18.9448 6.29373 19 6.36 19H10.2C10.2663 19 10.32 18.9448 10.32 18.8766V11.9675C10.32 11.4767 10.5096 11.006 10.8472 10.6589C11.1848 10.3119 11.6426 10.1169 12.12 10.1169C12.5974 10.1169 13.0552 10.3119 13.3928 10.6589C13.7304 11.006 13.92 11.4767 13.92 11.9675V18.8766C13.92 18.9448 13.9737 19 14.04 19H17.88C17.9463 19 18 18.9448 18 18.8766V10.3688C18 7.97359 15.9738 6.09973 13.6558 6.31639C12.941 6.3832 12.2342 6.56591 11.5742 6.85672L10.32 7.40937V6.04545C10.32 5.97732 10.2663 5.92208 10.2 5.92208H6.36Z" fill="white"/>
</svg>
